source/img/flowIn.svg

<svg width="80" height="80" viewBox="0 0 80 80" fill="none" xmlns="http://www.w3.org/2000/svg">
<path d="M40 40.0005C39.083 40.0005 38.1866 40.2644 37.4242 40.7589C36.6617 41.2533 36.0675 41.9561 35.7166 42.7784C35.3656 43.6007 35.2738 44.5055 35.4527 45.3784C35.6316 46.2513 36.0732 47.0531 36.7216 47.6825C37.37 48.3118 38.1961 48.7404 39.0955 48.914C39.9949 49.0877 40.9271 48.9985 41.7743 48.6579C42.6214 48.3174 43.3455 47.7406 43.855 47.0006C44.3644 46.2605 44.6364 45.3905 44.6364 44.5005C44.6364 43.307 44.1479 42.1624 43.2784 41.3185C42.4089 40.4746 41.2296 40.0005 40 40.0005ZM40 46.0005C39.6943 46.0005 39.3955 45.9125 39.1414 45.7477C38.8872 45.5829 38.6892 45.3486 38.5722 45.0745C38.4552 44.8004 38.4246 44.4988 38.4842 44.2079C38.5439 43.9169 38.6911 43.6496 38.9072 43.4398C39.1233 43.2301 39.3987 43.0872 39.6985 43.0293C39.9983 42.9714 40.309 43.0011 40.5914 43.1147C40.8738 43.2282 41.1152 43.4205 41.285 43.6671C41.4548 43.9138 41.5455 44.2038 41.5455 44.5005C41.5455 44.8983 41.3826 45.2798 41.0928 45.5611C40.803 45.8425 40.4099 46.0005 40 46.0005ZM38.9027 36.5655C39.0497 36.7021 39.223 36.8091 39.4127 36.8805C39.5977 36.9598 39.7977 37.0008 40 37.0008C40.2023 37.0008 40.4023 36.9598 40.5873 36.8805C40.777 36.8091 40.9503 36.7021 41.0973 36.5655L44.6364 33.1905C44.9356 32.9001 45.1037 32.5062 45.1037 32.0955C45.1037 31.6848 44.9356 31.2909 44.6364 31.0005C44.3372 30.7101 43.9313 30.5469 43.5082 30.5469C43.085 30.5469 42.6792 30.7101 42.38 31.0005L41.5455 31.8855V26.5005C41.5455 26.1027 41.3826 25.7211 41.0928 25.4398C40.803 25.1585 40.4099 25.0005 40 25.0005C39.5901 25.0005 39.197 25.1585 38.9072 25.4398C38.6174 25.7211 38.4545 26.1027 38.4545 26.5005V31.8855L37.62 31.0005C37.3208 30.7101 36.915 30.5469 36.4918 30.5469C36.0687 30.5469 35.6628 30.7101 35.3636 31.0005C35.0644 31.2909 34.8963 31.6848 34.8963 32.0955C34.8963 32.5062 35.0644 32.9001 35.3636 33.1905L38.9027 36.5655ZM50.8182 44.5005C50.8182 44.2038 50.7275 43.9138 50.5577 43.6671C50.3879 43.4205 50.1465 43.2282 49.8641 43.1147C49.5818 43.0011 49.271 42.9714 48.9712 43.0293C48.6714 43.0872 48.3961 43.2301 48.1799 43.4398C47.9638 43.6496 47.8166 43.9169 47.757 44.2079C47.6973 44.4988 47.7279 44.8004 47.8449 45.0745C47.9619 45.3486 48.16 45.5829 48.4141 45.7477C48.6683 45.9125 48.9671 46.0005 49.2727 46.0005C49.6826 46.0005 50.0757 45.8425 50.3655 45.5611C50.6554 45.2798 50.8182 44.8983 50.8182 44.5005ZM52.3636 34.0005H47.7273C47.3174 34.0005 46.9243 34.1585 46.6345 34.4398C46.3446 34.7211 46.1818 35.1027 46.1818 35.5005C46.1818 35.8983 46.3446 36.2798 46.6345 36.5611C46.9243 36.8425 47.3174 37.0005 47.7273 37.0005H52.3636C52.7735 37.0005 53.1666 37.1585 53.4564 37.4398C53.7463 37.7211 53.9091 38.1027 53.9091 38.5005V50.5005C53.9091 50.8983 53.7463 51.2798 53.4564 51.5612C53.1666 51.8425 52.7735 52.0005 52.3636 52.0005H27.6364C27.2265 52.0005 26.8334 51.8425 26.5436 51.5612C26.2537 51.2798 26.0909 50.8983 26.0909 50.5005V38.5005C26.0909 38.1027 26.2537 37.7211 26.5436 37.4398C26.8334 37.1585 27.2265 37.0005 27.6364 37.0005H32.2727C32.6826 37.0005 33.0757 36.8425 33.3655 36.5611C33.6554 36.2798 33.8182 35.8983 33.8182 35.5005C33.8182 35.1027 33.6554 34.7211 33.3655 34.4398C33.0757 34.1585 32.6826 34.0005 32.2727 34.0005H27.6364C26.4067 34.0005 25.2274 34.4746 24.358 35.3185C23.4885 36.1624 23 37.307 23 38.5005V50.5005C23 51.694 23.4885 52.8386 24.358 53.6825C25.2274 54.5264 26.4067 55.0005 27.6364 55.0005H52.3636C53.5933 55.0005 54.7726 54.5264 55.642 53.6825C56.5115 52.8386 57 51.694 57 50.5005V38.5005C57 37.307 56.5115 36.1624 55.642 35.3185C54.7726 34.4746 53.5933 34.0005 52.3636 34.0005ZM29.1818 44.5005C29.1818 44.7972 29.2725 45.0872 29.4423 45.3338C29.6121 45.5805 29.8535 45.7728 30.1359 45.8863C30.4182 45.9998 30.729 46.0295 31.0288 45.9717C31.3286 45.9138 31.6039 45.7709 31.8201 45.5611C32.0362 45.3514 32.1834 45.0841 32.243 44.7931C32.3027 44.5022 32.2721 44.2006 32.1551 43.9265C32.0381 43.6524 31.84 43.4181 31.5859 43.2533C31.3317 43.0885 31.0329 43.0005 30.7273 43.0005C30.3174 43.0005 29.9243 43.1585 29.6345 43.4398C29.3446 43.7211 29.1818 44.1027 29.1818 44.5005Z" fill="url(#paint0_linear)"/>
<rect x="1.5" y="1.5" width="77" height="77" rx="38.5" stroke="url(#paint1_linear)" stroke-width="3"/>
<defs>
<linearGradient id="paint0_linear" x1="22.6694" y1="24.5309" x2="61.724" y2="31.1743" gradientUnits="userSpaceOnUse">
<stop stop-color="#0068EC"/>
<stop offset="1" stop-color="#00BBF9"/>
</linearGradient>
<linearGradient id="paint1_linear" x1="-0.77778" y1="-1.25228" x2="91.6912" y2="12.6267" gradientUnits="userSpaceOnUse">
<stop stop-color="#0068EC"/>
<stop offset="1" stop-color="#00BBF9"/>
</linearGradient>
</defs>
</svg>

<svg width="80" height="80" fill="none" xmlns="http://www.w3.org/2000/svg">
  <path d="M40 40c-.917 0-1.813.264-2.576.759a4.53 4.53 0 0 0-1.707 2.02 4.377 4.377 0 0 0-.264 2.6c.179.872.62 1.674 1.269 2.303a4.681 4.681 0 0 0 2.373 1.232c.9.174 1.832.084 2.68-.256A4.61 4.61 0 0 0 43.854 47c.51-.74.781-1.61.781-2.5a4.434 4.434 0 0 0-1.358-3.182A4.709 4.709 0 0 0 40 40Zm0 6c-.306 0-.605-.087-.859-.252a1.51 1.51 0 0 1-.569-.673 1.459 1.459 0 0 1-.088-.867c.06-.291.207-.558.423-.768a1.588 1.588 0 0 1 1.684-.325c.283.113.524.305.694.552a1.47 1.47 0 0 1-.192 1.894 1.57 1.57 0 0 1-1.093.44Zm-1.097-9.434c.147.136.32.243.51.314a1.491 1.491 0 0 0 1.174 0c.19-.07.363-.178.51-.315l3.54-3.374c.299-.29.467-.685.467-1.096 0-.41-.168-.804-.468-1.095a1.62 1.62 0 0 0-1.128-.453A1.62 1.62 0 0 0 42.38 31l-.835.886V26.5c0-.397-.162-.779-.452-1.06A1.57 1.57 0 0 0 40 25c-.41 0-.803.159-1.093.44-.29.281-.452.663-.452 1.06v5.386L37.62 31a1.62 1.62 0 0 0-1.128-.453 1.62 1.62 0 0 0-1.128.453c-.3.29-.468.685-.468 1.096 0 .41.168.804.468 1.095l3.539 3.374ZM50.818 44.5c0-.296-.09-.586-.26-.833a1.537 1.537 0 0 0-.694-.552 1.588 1.588 0 0 0-.893-.086c-.3.058-.575.201-.791.41-.216.21-.363.478-.423.769-.06.29-.03.592.088.867.117.274.315.508.57.673a1.58 1.58 0 0 0 1.95-.187c.29-.281.453-.663.453-1.06ZM52.364 34h-4.637c-.41 0-.803.158-1.092.44-.29.281-.453.663-.453 1.06 0 .398.163.78.453 1.061.29.282.682.44 1.092.44h4.637c.41 0 .803.157 1.092.439.29.281.453.663.453 1.06v12c0 .398-.163.78-.453 1.061a1.57 1.57 0 0 1-1.092.44H27.636a1.57 1.57 0 0 1-1.092-.44 1.478 1.478 0 0 1-.453-1.06v-12c0-.398.163-.78.453-1.061a1.57 1.57 0 0 1 1.092-.44h4.637c.41 0 .803-.157 1.092-.439.29-.281.453-.663.453-1.06 0-.398-.163-.78-.453-1.061a1.57 1.57 0 0 0-1.092-.44h-4.637c-1.23 0-2.409.475-3.278 1.319A4.434 4.434 0 0 0 23 38.5v12a4.43 4.43 0 0 0 1.358 3.182 4.708 4.708 0 0 0 3.278 1.319h24.728c1.23 0 2.409-.475 3.278-1.319A4.434 4.434 0 0 0 57 50.502v-12a4.434 4.434 0 0 0-1.358-3.182A4.708 4.708 0 0 0 52.364 34ZM29.182 44.5c0 .297.09.587.26.834.17.246.412.439.694.552.282.114.593.143.893.086.3-.058.575-.201.791-.41.216-.21.363-.478.423-.769.06-.29.03-.592-.088-.867a1.511 1.511 0 0 0-.57-.673 1.58 1.58 0 0 0-1.95.187c-.29.281-.453.663-.453 1.06Z" fill="url(#a)"/>
  <rect x="1.5" y="1.5" width="77" height="77" rx="38.5" stroke="url(#b)" stroke-width="3"/>
  <defs>
    <linearGradient id="a" x1="22.669" y1="24.531" x2="61.724" y2="31.174" gradientUnits="userSpaceOnUse">
      <stop stop-color="#0068EC"/>
      <stop offset="1" stop-color="#00BBF9"/>
    </linearGradient>
    <linearGradient id="b" x1="-.778" y1="-1.252" x2="91.691" y2="12.627" gradientUnits="userSpaceOnUse">
      <stop stop-color="#0068EC"/>
      <stop offset="1" stop-color="#00BBF9"/>
    </linearGradient>
  </defs>
</svg>
